symbols/web/speed/materialsymbolsrounded/speed_wght500gradN25_20px.svg

<svg xmlns="http://www.w3.org/2000/svg" height="20" width="20"><path d="M8.708 12.875q.48.437 1.271.458.792.021 1.188-.562l3.375-4.979q.229-.334-.052-.615-.282-.281-.615-.052l-5.021 3.354q-.583.375-.594 1.146-.01.771.448 1.25Zm-4.291 3.771q-.479 0-.927-.208-.448-.209-.678-.646-.52-.917-.812-1.969-.292-1.052-.292-2.198 0-1.687.657-3.198.656-1.51 1.781-2.635Q5.271 4.667 6.781 4.01 8.292 3.354 10 3.354q.938 0 1.823.188.885.187 1.719.604.416.166.479.614.062.448-.292.823-.208.229-.521.282-.312.052-.625-.094-.625-.292-1.281-.417-.656-.125-1.302-.125-2.646 0-4.531 1.886Q3.583 9 3.583 11.625q0 .833.229 1.635.23.802.646 1.511h11.084q.458-.709.666-1.542.209-.833.209-1.687 0-.604-.125-1.271-.125-.667-.459-1.292-.145-.312-.073-.614.073-.303.302-.49.376-.313.813-.24.437.073.625.49.396.833.615 1.667.218.833.177 1.687.02 1.167-.25 2.261-.271 1.093-.834 2.052-.229.458-.698.656-.468.198-.927.198ZM10.021 10Z"/></svg>

<svg xmlns="http://www.w3.org/2000/svg" height="20" width="20"><path d="M8.708 12.875Q9.188 13.312 9.979 13.333Q10.771 13.354 11.167 12.771L14.542 7.792Q14.771 7.458 14.49 7.177Q14.208 6.896 13.875 7.125L8.854 10.479Q8.271 10.854 8.26 11.625Q8.25 12.396 8.708 12.875ZM4.417 16.646Q3.938 16.646 3.49 16.438Q3.042 16.229 2.812 15.792Q2.292 14.875 2 13.823Q1.708 12.771 1.708 11.625Q1.708 9.938 2.365 8.427Q3.021 6.917 4.146 5.792Q5.271 4.667 6.781 4.01Q8.292 3.354 10 3.354Q10.938 3.354 11.823 3.542Q12.708 3.729 13.542 4.146Q13.958 4.312 14.021 4.76Q14.083 5.208 13.729 5.583Q13.521 5.812 13.208 5.865Q12.896 5.917 12.583 5.771Q11.958 5.479 11.302 5.354Q10.646 5.229 10 5.229Q7.354 5.229 5.469 7.115Q3.583 9 3.583 11.625Q3.583 12.458 3.812 13.26Q4.042 14.062 4.458 14.771H15.542Q16 14.062 16.208 13.229Q16.417 12.396 16.417 11.542Q16.417 10.938 16.292 10.271Q16.167 9.604 15.833 8.979Q15.688 8.667 15.76 8.365Q15.833 8.062 16.062 7.875Q16.438 7.562 16.875 7.635Q17.312 7.708 17.5 8.125Q17.896 8.958 18.115 9.792Q18.333 10.625 18.292 11.479Q18.312 12.646 18.042 13.74Q17.771 14.833 17.208 15.792Q16.979 16.25 16.51 16.448Q16.042 16.646 15.583 16.646ZM10.021 10Q10.021 10 10.021 10Q10.021 10 10.021 10Q10.021 10 10.021 10Q10.021 10 10.021 10Q10.021 10 10.021 10Q10.021 10 10.021 10Q10.021 10 10.021 10Q10.021 10 10.021 10Q10.021 10 10.021 10Q10.021 10 10.021 10Q10.021 10 10.021 10Q10.021 10 10.021 10Q10.021 10 10.021 10Q10.021 10 10.021 10Q10.021 10 10.021 10Q10.021 10 10.021 10Q10.021 10 10.021 10Q10.021 10 10.021 10Q10.021 10 10.021 10Q10.021 10 10.021 10Z"/></svg>
